X:1
T:Old Time Religion
M:4/4
L:1/4
K:C
 G/2G/2 A| c2 c3/2 c/2| A G A/2A/2 c| d2 d3/2 e/2| d c| c/2c/2 c| e2 e3/2 e/2|\
 d c2 A| G c c B| c2||
